X: 1
T: Lavin's Favourite
M: 4/4
L: 1/8
R: reel
K: Dmaj
|:B|(3ABA FA ABdf|edfe fddB|(3ABA FA ABdB|AFEG FDDB|
(3ABA FA ABdf|edfe fddB|(3ABA FA ABdB|AFEG FDD:|
|:E|FAdA BAdA|(3Bcd ed cAAG|(3FGA dA BAdB| AFEG FDDE|
FAdA BAdA|(3Bcd ed cAAG|(3FGA dA BAdB| AFEG FDD:|
